X:1
T:St. Joseph, 87.87.77
T:St. Joseph, 87.87.77
T:Henry Heathcote Statham (1839-1924)
T:Public Domain Courtesy of the Cyber Hymnal™
C:Henry Heathcote Statham (1839-1924)
Z:Public Domain
Z:Courtesy of the Cyber Hymnal™
%%score ( 1 2 ) ( 3 4 )
L:1/8
Q:1/4=115
M:2/4
K:F
V:1 treble 
V:2 treble 
V:3 bass 
V:4 bass 
V:1
 [FA]3 [FA] | [FA]2 [FA]2 | [Fc]2 [FB]2 | [FA]2 [EG]2 | [DF]3 F | [FG]2 [FA]2 | [FB]2 [EG]2 | F4 | %8
 [FA]3 [FA] | [FA]2 [FA]2 | [Fc]2 [FB]2 | [FA]2 [EG]2 | [DF]3 F | [FG]2 [FA]2 | [FB]2 [EG]2 | F4 | %16
 [Fc]3 [Fc] | [Fd]2 [Fc]2 | [CA]2 F2 | [EG]4 | [EA]3 [EG] | [DF]2 D2 | [DG]2 [CE]2 | [CF]4 |] %24
V:2
 x4 | x4 | x4 | x4 | x3 F | x4 | x4 | F4 | x4 | x4 | x4 | x4 | x3 F | x4 | x4 | F4 | x4 | x4 | %18
 x2 F2 | x4 | x4 | x2 D2 | x4 | x4 |] %24
V:3
 [F,C]3 [F,C] | [D,D]2 [D,D]2 | [A,,_E]2 [B,,D]2 | [C,C]2 (CB,) | [D,A,]3 [C,A,] | %5
 [B,,D]2 [A,,C]2 | [G,,D]2 [C,B,]2 | [F,A,]4 | [F,C]3 [F,C] | [D,D]2 [D,D]2 | [A,,_E]2 [B,,D]2 | %11
 [C,C]2 (CB,) | [D,A,]3 [C,A,] | [B,,D]2 [A,,C]2 | [G,,D]2 [C,B,]2 | [F,A,]4 | [F,A,]3 [F,A,] | %17
 [F,B,]2 [F,A,]2 | [F,A,]2 [D,=B,]2 | [C,C]4 | [^C,A,]3 [C,A,] | [D,A,]2 [B,,B,]2 | %22
 [G,,B,]2 [C,G,]2 | [F,A,]4 |] %24
V:4
 x4 | x4 | x4 | x2 C,2 | x4 | x4 | x4 | x4 | x4 | x4 | x4 | x2 C,2 | x4 | x4 | x4 | x4 | x4 | x4 | %18
 x4 | x4 | x4 | x4 | x4 | x4 |] %24

